X:1312
T:Lyft upp mig o tecku
T:Älvdalspolska efter Ewert Åhs
S:Efter Kristina Ståhl Cedervall
S:Efter Ewert Åhs
Z:[[http://www.bluerose.karenlmyers.org/IncipitsPolskaAlvdalen2.html|Karen Myers (#1050)]]
Z:Upptecknad 9/1994
M:3/4
L:1/8
R:Polska
O:Älvdalen, Dalarna
K:A
a2 a2 g>b | a2 e4 | e2 e2 B>d | (cA) A4 :|
|: e2 (Bd) cA | e2 (Bd) cA | e2 e2 B>d | (cA) A4 :|
(:musicend:)

(:music:)
